X:1
T: The Leys o' Luncarty
C:
R:Strathspey
Q: 128
K:G
M:4/4
L:1/16
|:B2|DG3 B3G c3A B3G|AAA2 B3G c3A =FA3|DG3 B3G c3A B3G|AAA2 d3c BG3 G2B2|
DG3 B3G c3A B3G|AAA2 B3G c3A =FA3|DG3 B3G c3A B3G|AAA2 d3c BG3 G2f2|
gd3 d3e =f3g a3g|=f3d c3_B A=F3 F3^f|gd3 d3e g3a b3a|gd3 d3e gfga g3b|
gd3 d3e =f3g a3g|=f3d c3_B A=F3 F3^f|g3e f3d ec3 dB3|Ag3 fa3 gG3 G2:|
